X: 92
T: Jin zhu ri ma Rolgarm-a            (M.S  1183)
L: 1/4
M: 4/4
K: C
EAAG/ A/ [I:setbarnb 1]| 
EAAA | 
Aeed/ e/ | 
c>Adg | 
e4 | 
Aeed/ g/ | 
ee/ d/cA | 
A>cde | 
eEG3/c/ | 
A4 |]

@@@ Tune index: 8760
